app/img/photos/serv-1.svg

<svg width="64" height="64" viewBox="0 0 64 64" fill="none" xmlns="http://www.w3.org/2000/svg">
<path d="M63.9275 25.2427C63.9189 25.2171 63.9147 25.1915 63.904 25.1669C63.8592 25.0629 63.798 24.9667 63.7227 24.8821L54.6432 14.8949C53.4291 13.562 51.7101 12.8016 49.9072 12.8H44.8V2.13333C44.8 0.955126 43.8449 0 42.6667 0H21.3333C20.1551 0 19.2 0.955126 19.2 2.13333V12.8H14.0928C12.2899 12.8016 10.5709 13.562 9.3568 14.8949L0.277333 24.8821C0.20202 24.9667 0.140795 25.0629 0.096 25.1669C0.0853333 25.1915 0.0810667 25.2171 0.0725333 25.2427C0.0374077 25.339 0.0169134 25.44 0.0117333 25.5424C0.0106667 25.5627 0 25.5797 0 25.6V45.8667C0.00352787 49.3998 2.86684 52.2631 6.4 52.2667H13.8667L10.0267 57.3867C9.54184 58.0331 9.46385 58.898 9.82522 59.6207C10.1866 60.3435 10.9253 60.8 11.7333 60.8H17.9307L17.8475 60.9845C17.5476 61.6448 17.6037 62.4123 17.9964 63.0219C18.3891 63.6316 19.0647 64 19.7899 64H44.2101C44.9353 64 45.6109 63.6316 46.0036 63.0219C46.3963 62.4123 46.4524 61.6448 46.1525 60.9845L46.0683 60.8H52.2667C53.0747 60.8 53.8134 60.3435 54.1748 59.6207C54.5361 58.898 54.4582 58.0331 53.9733 57.3867L50.1333 52.2667H57.6C61.1332 52.2631 63.9965 49.3998 64 45.8667V25.6C64 25.5797 63.9893 25.5627 63.9883 25.5424C63.9831 25.44 63.9626 25.339 63.9275 25.2427ZM21.3333 2.13333H42.6667V19.2H21.3333V2.13333ZM10.9355 16.3307C11.7445 15.4415 12.8907 14.9342 14.0928 14.9333H19.2V19.2H18.1333C17.5442 19.2 17.0667 19.6776 17.0667 20.2667C17.0667 20.8558 17.5442 21.3333 18.1333 21.3333H45.8667C46.4558 21.3333 46.9333 20.8558 46.9333 20.2667C46.9333 19.6776 46.4558 19.2 45.8667 19.2H44.8V14.9333H49.9072C51.1093 14.9342 52.2555 15.4415 53.0645 16.3307L60.5216 24.5333H3.4784L10.9355 16.3307ZM48 49.4229L45.8667 46.5781V44.8C45.8667 43.0327 44.434 41.6 42.6667 41.6H21.3333C19.566 41.6 18.1333 43.0327 18.1333 44.8V46.5781L16 49.4229V41.6C16.0047 37.4782 19.3449 34.138 23.4667 34.1333H40.5333C44.6551 34.138 47.9953 37.4782 48 41.6V49.4229ZM43.7333 45.8667H20.2667V44.8C20.2667 44.2109 20.7442 43.7333 21.3333 43.7333H42.6667C43.2558 43.7333 43.7333 44.2109 43.7333 44.8V45.8667ZM19.7899 61.8667L24.1536 52.2667H39.8464L44.2144 61.8667H19.7899ZM45.0987 58.6667L41.5168 50.7851L41.5051 50.7595C41.4552 50.6533 41.3878 50.5562 41.3056 50.4725C41.2832 50.4491 41.2576 50.4309 41.2341 50.4096C41.1641 50.3478 41.0863 50.2954 41.0027 50.2539C40.9711 50.2372 40.9387 50.2223 40.9056 50.2091C40.787 50.1618 40.661 50.1361 40.5333 50.1333H23.4667C23.3395 50.1359 23.2138 50.1612 23.0955 50.208C23.0623 50.2212 23.0299 50.2362 22.9984 50.2528C22.9148 50.2944 22.8369 50.3467 22.7669 50.4085C22.7435 50.4299 22.7179 50.448 22.6955 50.4715C22.6133 50.5552 22.5458 50.6522 22.496 50.7584L22.4843 50.784L18.9013 58.6667H11.7333L19.7333 48H44.2667L52.2667 58.6667H45.0987ZM61.8667 45.8667C61.8667 48.2231 59.9564 50.1333 57.6 50.1333H50.1333V41.6C50.1269 36.3007 45.8326 32.0065 40.5333 32H23.4667C18.1674 32.0065 13.8731 36.3007 13.8667 41.6V50.1333H6.4C4.04359 50.1333 2.13333 48.2231 2.13333 45.8667V26.6667H61.8667V45.8667Z" fill="white"/>
<path d="M56.5335 36.2667C58.3008 36.2667 59.7335 34.834 59.7335 33.0667C59.7335 31.2994 58.3008 29.8667 56.5335 29.8667C54.7662 29.8667 53.3335 31.2994 53.3335 33.0667C53.3335 34.834 54.7662 36.2667 56.5335 36.2667ZM56.5335 32C57.1226 32 57.6002 32.4776 57.6002 33.0667C57.6002 33.6558 57.1226 34.1333 56.5335 34.1333C55.9444 34.1333 55.4668 33.6558 55.4668 33.0667C55.4668 32.4776 55.9444 32 56.5335 32Z" fill="white"/>
<path d="M56.5335 40.5333C57.1226 40.5333 57.6001 40.0558 57.6001 39.4667C57.6001 38.8776 57.1226 38.4 56.5335 38.4C55.9444 38.4 55.4668 38.8776 55.4668 39.4667C55.4668 40.0558 55.9444 40.5333 56.5335 40.5333Z" fill="white"/>
<path d="M56.5335 43.7333C57.1226 43.7333 57.6001 43.2557 57.6001 42.6666C57.6001 42.0775 57.1226 41.6 56.5335 41.6C55.9444 41.6 55.4668 42.0775 55.4668 42.6666C55.4668 43.2557 55.9444 43.7333 56.5335 43.7333Z" fill="white"/>
<path d="M56.5335 46.9333C57.1226 46.9333 57.6001 46.4558 57.6001 45.8667C57.6001 45.2775 57.1226 44.8 56.5335 44.8C55.9444 44.8 55.4668 45.2775 55.4668 45.8667C55.4668 46.4558 55.9444 46.9333 56.5335 46.9333Z" fill="white"/>
<path d="M27.7332 56.5333H36.2665C36.8556 56.5333 37.3332 56.0558 37.3332 55.4667C37.3332 54.8776 36.8556 54.4 36.2665 54.4H27.7332C27.1441 54.4 26.6665 54.8776 26.6665 55.4667C26.6665 56.0558 27.1441 56.5333 27.7332 56.5333Z" fill="white"/>
<path d="M38.3999 57.6H25.5999C25.0108 57.6 24.5332 58.0775 24.5332 58.6666C24.5332 59.2557 25.0108 59.7333 25.5999 59.7333H38.3999C38.989 59.7333 39.4665 59.2557 39.4665 58.6666C39.4665 58.0775 38.989 57.6 38.3999 57.6Z" fill="white"/>
<path d="M5.33327 32C5.92237 32 6.39994 31.5224 6.39994 30.9333V29.8667C6.39994 29.2776 5.92237 28.8 5.33327 28.8C4.74416 28.8 4.2666 29.2776 4.2666 29.8667V30.9333C4.2666 31.5224 4.74416 32 5.33327 32Z" fill="white"/>
<path d="M5.33327 42.6667C5.92237 42.6667 6.39994 42.1891 6.39994 41.6V35.2C6.39994 34.6109 5.92237 34.1333 5.33327 34.1333C4.74416 34.1333 4.2666 34.6109 4.2666 35.2V41.6C4.2666 42.1891 4.74416 42.6667 5.33327 42.6667Z" fill="white"/>
</svg>

<svg width="64" height="64" viewBox="0 0 64 64" fill="none" xmlns="http://www.w3.org/2000/svg"><path d="M63.928 25.243c-.01-.026-.013-.051-.024-.076a1.058 1.058 0 0 0-.181-.285l-9.08-9.987a6.414 6.414 0 0 0-4.736-2.095H44.8V2.133A2.133 2.133 0 0 0 42.667 0H21.333A2.133 2.133 0 0 0 19.2 2.133V12.8h-5.107a6.414 6.414 0 0 0-4.736 2.095l-9.08 9.987a1.06 1.06 0 0 0-.181.285c-.01.024-.015.05-.023.076a1.026 1.026 0 0 0-.061.3C.01 25.562 0 25.58 0 25.6v20.267a6.406 6.406 0 0 0 6.4 6.4h7.467l-3.84 5.12a2.133 2.133 0 0 0 1.706 3.413h6.198l-.084.184A2.133 2.133 0 0 0 19.79 64h24.42a2.133 2.133 0 0 0 1.943-3.016l-.085-.184h6.199a2.133 2.133 0 0 0 1.706-3.413l-3.84-5.12H57.6a6.406 6.406 0 0 0 6.4-6.4V25.6c0-.02-.01-.037-.012-.058a1.027 1.027 0 0 0-.06-.3zM21.333 2.133h21.334V19.2H21.333V2.133zM10.936 16.331a4.273 4.273 0 0 1 3.157-1.398H19.2V19.2h-1.067a1.067 1.067 0 0 0 0 2.133h27.734a1.067 1.067 0 1 0 0-2.133H44.8v-4.267h5.107a4.273 4.273 0 0 1 3.158 1.398l7.457 8.202H3.478l7.457-8.202zM48 49.423l-2.133-2.845V44.8a3.2 3.2 0 0 0-3.2-3.2H21.333a3.2 3.2 0 0 0-3.2 3.2v1.778L16 49.423V41.6a7.475 7.475 0 0 1 7.467-7.467h17.066A7.475 7.475 0 0 1 48 41.6v7.823zm-4.267-3.556H20.267V44.8c0-.59.477-1.067 1.066-1.067h21.334c.589 0 1.066.478 1.066 1.067v1.067zm-23.943 16l4.364-9.6h15.692l4.368 9.6H19.79zm25.309-3.2l-3.582-7.882-.012-.025a1.042 1.042 0 0 0-.2-.288c-.022-.023-.047-.041-.07-.062a1.066 1.066 0 0 0-.33-.2 1.068 1.068 0 0 0-.372-.077H23.467a1.068 1.068 0 0 0-.469.12 1.07 1.07 0 0 0-.231.155c-.023.022-.05.04-.072.063a1.04 1.04 0 0 0-.199.287l-.012.026-3.583 7.883h-7.168l8-10.667h24.534l8 10.667h-7.168zm16.768-12.8a4.267 4.267 0 0 1-4.267 4.266h-7.467V41.6a9.612 9.612 0 0 0-9.6-9.6H23.467a9.612 9.612 0 0 0-9.6 9.6v8.533H6.4a4.267 4.267 0 0 1-4.267-4.266v-19.2h59.734v19.2z" fill="#fff"/><path d="M56.533 36.267a3.2 3.2 0 1 0 0-6.4 3.2 3.2 0 0 0 0 6.4zm0-4.267a1.067 1.067 0 1 1 0 2.133 1.067 1.067 0 0 1 0-2.133zm0 8.533a1.067 1.067 0 1 0 0-2.133 1.067 1.067 0 0 0 0 2.133zm0 3.2a1.067 1.067 0 1 0 0-2.133 1.067 1.067 0 0 0 0 2.133zm0 3.2a1.067 1.067 0 1 0 0-2.133 1.067 1.067 0 0 0 0 2.133zm-28.8 9.6h8.534a1.067 1.067 0 1 0 0-2.133h-8.534a1.067 1.067 0 0 0 0 2.133zM38.4 57.6H25.6a1.067 1.067 0 1 0 0 2.133h12.8a1.067 1.067 0 0 0 0-2.133zM5.333 32c.59 0 1.067-.478 1.067-1.067v-1.066a1.067 1.067 0 0 0-2.133 0v1.066c0 .59.477 1.067 1.066 1.067zm0 10.667c.59 0 1.067-.478 1.067-1.067v-6.4a1.067 1.067 0 0 0-2.133 0v6.4c0 .59.477 1.067 1.066 1.067z" fill="#fff"/></svg>
